X:1
T:Title
%%score ( 1 2 3 ) { ( 4 6 ) | 5 }
L:1/8
Q:1/4=115
M:4/4
K:D
V:1 treble nm="Grand Piano, Staff"
V:2 treble 
V:3 treble 
V:4 treble nm="Choir Pad, Prescott (Stewart)"
V:6 treble 
V:5 bass 
V:1
 [FA]3 [DA] [EA]2 Bc | [Dd]2 [EA]2 F2 [CA]2 | D3 D [DE]2 [DE]2 | G2 E2 z4 | z4 z2 .B2 | z4 e4 | %6
w: By~Robert~Prescott~Stewart,~1868 * * * *||||||
 [Ac]2 [EA]2 [DF]2 [FB]2 | [E^G]3 [EG] [EA]4 | [CE]2 [^DF]2 [EG]2 [GB]2 | [Ge]2 [Gd]2 [Gc]4 | %10
w: ||||
 [Gd]2 [EA]2 F2 [DG]2 | E4 z4 | z8 |] %13
w: |||
V:2
 z4 z2 E2 | x8 | x8 | DCB,C [DF]4 | [FA]3 [FA] A2 A-[Ac] | [Fd]2 [FB]2 E2 z d | x8 | x8 | x8 | x8 | %10
 x8 | D2 CD D4- | D4 z4 |] %13
V:3
 x8 | x8 | x8 | x8 | x8 | z4 z2 ^G2 | x8 | x8 | x8 | x8 | x8 | x8 | x8 |] %13
V:4
 D3 D C2 B,A, | A,2 A,2 A,2 G,2 | F,3 F, B,2 B,2 | E,2 A,2 A,4 | D3 D E2 E2 | z2 D2 z4 | %6
 E2 C2 A,2 D2 | B,2 CD C4 | A,2 A,2 B,2 B,2 | C2[K:treble] D2 E4 | D2 E2 A,2[K:bass] A,2 | %11
 A,2 G,2 F,4- | F,4 z4 |] %13
V:5
 D,3 F, A,2 G,2 | F,2 C,2 D,2 A,,2 | B,,3 B,, G,,2 G,,2 | A,,2 A,,2 D,4 | z4 C2 C2 | %5
 .B,4 ^G,2 E,2 | A,2 A,2 D,2 B,,2 | E,3 E, A,,4 | G,2 F,2 E,2 D,2 | C,2 B,,2 A,,4 | %10
 B,,2 C,2 D,2 F,2 | z2 A,,2 D,4- | D,4 z4 |] %13
V:6
 x8 | x8 | x8 | x8 | x8 | D2 z A, B,2 E2 | x8 | x8 | x8 | x2[K:treble] x6 | x6[K:bass] x2 | x8 | %12
 x8 |] %13

